app/img/icons/sad_face.svg

<svg width="20" height="20" viewBox="0 0 20 20" fill="none" xmlns="http://www.w3.org/2000/svg">
<path d="M12.5009 9.75C13.3289 9.75 14.0009 8.967 14.0009 8C14.0009 7.033 13.3289 6.25 12.5009 6.25C11.6729 6.25 11.0009 7.033 11.0009 8C11.0009 8.967 11.6719 9.75 12.5009 9.75ZM7.50091 9.75C8.32891 9.75 9.00091 8.967 9.00091 8C9.00091 7.033 8.32891 6.25 7.50091 6.25C6.67291 6.25 6.00091 7.033 6.00091 8C6.00091 8.967 6.67191 9.75 7.50091 9.75ZM10.0019 11.5C6.57791 11.5 5.37991 13.565 5.32991 13.664C5.2408 13.842 5.22603 14.048 5.28886 14.2369C5.35168 14.4257 5.48695 14.5819 5.66491 14.671C5.84287 14.7601 6.04895 14.7749 6.23779 14.7121C6.42664 14.6492 6.5828 14.514 6.67191 14.336C6.67991 14.319 7.49391 12.75 10.0019 12.75C12.4649 12.75 13.2999 14.277 13.3299 14.335C13.3734 14.4239 13.4341 14.5033 13.5085 14.5686C13.5828 14.634 13.6694 14.6839 13.7632 14.7157C13.8569 14.7474 13.956 14.7602 14.0548 14.7535C14.1535 14.7467 14.25 14.7205 14.3385 14.6762C14.4271 14.632 14.506 14.5707 14.5708 14.4959C14.6355 14.421 14.6848 14.3341 14.7158 14.24C14.7468 14.146 14.7589 14.0468 14.7513 13.9481C14.7438 13.8494 14.7168 13.7532 14.6719 13.665C14.6229 13.566 13.4259 11.5 10.0019 11.5Z" fill="#FA4616"/>
<circle cx="10" cy="10" r="9.5" stroke="#FA4616"/>
</svg>

<svg width="20" height="20" fill="none" xmlns="http://www.w3.org/2000/svg"><path d="M12.5 9.75c.829 0 1.5-.783 1.5-1.75s-.671-1.75-1.5-1.75c-.827 0-1.5.783-1.5 1.75s.672 1.75 1.5 1.75zm-5 0C8.33 9.75 9 8.967 9 8s-.67-1.75-1.5-1.75C6.674 6.25 6 7.033 6 8s.672 1.75 1.5 1.75zm2.502 1.75c-3.424 0-4.622 2.065-4.672 2.164a.75.75 0 001.342.672c.008-.017.822-1.586 3.33-1.586 2.463 0 3.298 1.527 3.328 1.585a.749.749 0 001.386-.095.748.748 0 00-.044-.575c-.05-.099-1.246-2.165-4.67-2.165z" fill="#FA4616"/><circle cx="10" cy="10" r="9.5" stroke="#FA4616"/></svg>
